svg/ava/pose/thinkinghmm.svg

<svg width="500" height="600" xmlns="http://www.w3.org/2000/svg" xmlns:xlink="http://www.w3.org/1999/xlink"><defs><path id="a" d="M0.0000981481481 0.065L158.857176 0.065 158.857176 27.9996189 0.0000981481481 27.9996189z"/><path id="c" d="M0 0L92 0 92 63 0 63z"/></defs><g fill="none" fill-rule="evenodd"><path d="M2.70088715,0.120400512 C1.78030626,0.365563873 0.98210954,0.962331627 0.500671831,1.7597669 C0.00483598556,2.58424867 -0.131946317,3.59020367 0.131719569,4.50978439 C0.359390111,5.3141994 0.995607794,6.29223544 1.82170091,6.64383984 C1.97108158,6.7066575 2.12136214,6.76947515 2.27074281,6.83229281 C2.76117935,7.25020473 3.20932137,7.69690808 3.63586618,8.18025506 C4.17939586,8.96024099 4.63023752,9.76727341 5.0423842,10.6179292 C6.08534925,13.2196272 6.76656111,15.9408533 7.45317228,18.6463749 C8.19287657,21.5656511 8.62032126,24.5582145 9.03786724,27.537691 C9.41581834,31.520505 9.87295919,35.4972118 10.0196402,39.4939853 C10.0934307,41.5085127 10.2095156,43.5221676 10.230213,45.536695 C10.2482106,47.7344406 10.2518102,49.9295688 10.2905052,52.1238245 C10.3642956,56.2924741 10.508277,60.4637411 10.5361734,64.6289008 C10.546972,66.7071184 10.6171629,68.8071476 10.5046775,70.8853651 C10.4551839,71.8328648 10.3966914,72.7768746 10.3184016,73.7235018 C10.0682339,74.0140335 9.85316175,74.335974 9.62549121,74.6483173 C9.21784395,75.207569 9.02976829,75.9247373 8.93977993,76.6235837 C8.82459483,76.8905588 8.72830729,77.1636411 8.67701393,77.4498104 C8.47274036,78.5909979 8.38455177,79.4433986 8.70850985,80.5854585 C9.27093708,82.5650872 10.9267228,84.2315001 12.9793573,84.7802821 C14.7440289,85.2505421 16.7084748,84.957393 18.2382768,83.9828469 C19.4225236,83.2299074 20.5617762,82.1358332 21.1413012,80.8646481 C21.7001289,79.634469 21.9116016,79.1947454 21.9916912,77.8275888 C22.0339857,77.1723657 21.9089019,76.5232499 21.7505224,75.8846038 C21.7127273,74.8507298 21.4823571,73.8028964 21.2609857,72.8013037 C21.0378146,71.7953487 20.8758356,70.7789241 20.7093571,69.7633719 C20.1955236,65.8320335 19.7500812,61.8867355 19.4297227,57.9388202 C19.0670696,53.4299083 18.8142023,48.9140166 18.4524491,44.4085946 C18.2481756,41.889781 18.0448019,39.3674775 17.8405283,36.8495364 C17.7667378,35.9055266 17.6047588,34.9615167 17.4859742,34.0201243 C17.2817006,32.3982073 17.0783269,30.7762903 16.8776529,29.1500109 C16.2873293,24.4578808 15.485533,19.7954146 14.233795,15.2219401 C13.8405458,13.7867311 13.4499964,12.3523945 12.9964551,10.9346349 C12.533015,9.46888953 11.9174947,8.05112988 11.2569801,6.66041672 C10.6279615,5.33775602 9.73797666,4.20005843 8.80659716,3.06846812 C7.96700579,2.04593623 6.76836088,1.0033376 5.53732016,0.481602047 C4.87500585,0.198050117 4.26128526,0 3.59807107,0 C3.31100821,0 3.01494652,0.036643634 2.70088715,0.120400512" transform="translate(262 239)" fill="#161616"/><g transform="rotate(90 17 248)"><mask id="b" fill="#fff"><use xlink:href="#a"/></mask><path d="M3.59232037,15.42675 C6.40082963,17.21375 9.44685741,18.34875 12.7343296,18.82725 C17.9788759,19.47575 23.2352,20.01675 28.4861259,20.61825 C35.8163204,21.45975 43.1695796,22.04975 50.5272556,22.57525 C50.7181537,22.58875 50.9090519,22.60275 51.1004407,22.61625 C55.7840704,23.07375 60.4672093,23.52525 65.1459315,24.04025 C72.0810796,24.80375 79.0073944,25.53625 85.9621722,26.09875 C91.4005611,26.53825 96.83895,26.92075 102.286663,27.20425 C107.767256,27.48925 113.243922,27.86825 118.730404,27.98325 C121.544311,28.04175 124.331719,27.93275 127.146117,27.82525 C128.328802,27.78025 129.509524,27.66525 130.690246,27.57725 C134.610283,27.28825 138.546024,27.09075 142.441033,26.56725 C144.774015,26.25275 147.350404,25.49525 149.463043,24.85425 C151.410793,24.26675 153.260394,23.29975 154.970626,22.20225 C156.130246,21.45975 157.226561,20.43475 157.924394,19.22375 C159.502126,16.48925 158.800367,15.84075 157.855691,13.09275 L157.740367,12.90525 C156.912487,11.88975 155.986459,10.96575 154.962774,10.13575 C154.799848,9.97575 154.636922,9.82725 154.454857,9.68825 C151.72683,7.64375 146.884691,6.14175 143.669848,5.79025 C141.124376,5.51075 138.569089,5.21775 136.007913,5.24725 C133.370181,5.27425 130.736376,5.42675 128.100607,5.45025 C125.467293,5.47525 122.836431,5.36425 120.208024,5.21425 C115.513107,4.71475 110.827515,4.15725 106.137996,3.62025 C105.018617,3.49325 103.895311,3.40325 102.773478,3.29975 C99.9252185,3.03825 96.9444593,2.61225 94.1187741,2.56175 C92.4797,2.53225 90.8406259,2.50275 89.2035148,2.47375 C87.9074685,2.45225 86.598663,2.59875 85.3065426,2.67475 C78.8940333,3.04375 72.45895,3.39925 66.0641074,3.99725 C65.6666074,4.03425 65.2686167,4.07125 64.8706259,4.10775 C60.4573944,3.64575 56.0353296,3.28625 51.6117926,2.94025 C47.6937185,2.58225 43.7893852,2.16025 39.8767093,1.70425 C37.3862,1.41325 34.8961815,1.10825 32.4002741,0.86625 C29.835663,0.61825 27.2838111,0.40125 24.7054593,0.21175 C24.0709315,0.16525 23.4329685,0.08875 22.7984407,0.07525 C19.4378481,0.00675 16.0527185,0.27625 12.7343296,0.82325 C9.44685741,1.30175 6.40082963,2.43675 3.59232037,4.22375 C1.46643148,5.50075 0.268533333,7.36825 9.81481481e-05,9.82525 C0.268533333,12.28225 1.46643148,14.14925 3.59232037,15.42675" fill="#FC6" mask="url(#b)"/></g><path d="M9.13809737,14.1209293 C9.40792592,15.0920072 10.0641333,15.937565 10.9402191,16.446943 C11.9059213,17.0078913 12.8872941,17.036109 13.9587729,16.8385852 C17.9493952,16.1005465 21.9449145,15.3401283 25.9663882,14.7713958 C29.7630865,14.3019117 33.5935746,14.1077935 37.416717,13.9764352 C39.3505699,13.9097831 41.2863816,13.8718352 43.222683,13.8377793 C44.5385257,13.8149132 45.8622037,13.7657755 47.1804949,13.7808574 C49.8337273,13.8129672 52.4884289,13.8436175 55.1436202,13.8757272 C58.8565786,13.9175673 62.5714958,13.9613534 66.2844541,14.0051394 C67.6904029,14.0221674 69.0792119,14.0523311 70.4817327,14.1321191 C74.1065438,14.3393732 77.7293961,14.5446812 81.3527381,14.7519353 C83.0094168,14.8448591 84.6656058,14.9402154 86.3242434,15.0331392 C86.9515581,15.0691411 87.5827904,15.086169 88.2105947,15.1416314 C93.7790529,15.633495 99.3514287,16.1146554 104.919887,16.606519 C110.000597,17.055083 115.073471,17.5853811 120.15614,18.0018353 C125.718722,18.455751 131.279834,18.9612369 136.844375,19.3966651 C139.540212,19.6078113 142.239967,19.8500943 144.945108,19.8607976 C145.286923,19.9741548 145.638043,20.0276712 145.965168,19.9858311 C146.408842,19.9289092 146.862311,19.919179 147.286887,19.7727389 C147.991085,19.5294829 148.390686,19.2920651 148.939648,18.7865791 C149.878906,17.9215608 150.20603,16.4829449 149.873519,15.2783413 C149.530724,14.0489255 148.559145,13.1192011 147.338796,12.7601553 C146.433817,12.4940332 145.479378,12.3612155 144.542079,12.2605075 C143.897625,12.1899633 143.252681,12.1028776 142.606267,12.0551994 C141.355066,11.9622756 140.103865,11.8688654 138.855112,11.7701034 C135.901199,11.5380372 132.953653,11.2913756 130.003658,11.0325513 C125.175637,10.6126914 120.341739,10.2594837 115.515677,9.80897365 C109.960441,9.29181142 104.405205,8.7790278 98.846051,8.29056978 C95.4719699,7.99379747 92.0973991,7.69945773 88.7233179,7.40268542 C86.9422536,7.24700159 85.1538437,7.1822955 83.3688617,7.08158752 C79.5736326,6.86508969 75.7784035,6.65053791 71.9831743,6.43355357 C70.5081769,6.34987351 69.0390559,6.25305763 67.5625894,6.23602971 C60.9608495,6.15818779 54.3615581,6.08229192 47.7598182,6.0039635 C46.2466237,5.98693558 44.7339188,6.02877561 43.222683,6.05358772 C39.6737765,6.11245567 36.1273185,6.2073255 32.5847782,6.41263356 C28.9291155,6.62377975 25.3003867,7.01882748 21.6848801,7.6006958 C18.4062918,8.12710175 15.1409256,8.72940358 11.8755594,9.3317054 C10.9172029,9.5102553 10.0102655,10.3125135 9.53427032,11.1220695 C9.18168129,11.7204792 9,12.4059746 9,13.0939025 C9,13.439326 9.04603246,13.785236 9.13809737,14.1209293" fill="#2C2C2C" transform="rotate(90 17 248)"/><g transform="rotate(90 34.5 250)"><mask id="d" fill="#fff"><use xlink:href="#c"/></mask><path d="M16.6891843,21.7883997 C16.7845647,21.7893687 16.8789866,21.795667 16.9734085,21.8068101 C16.9767636,21.808748 16.9801186,21.810686 16.9834737,21.8131084 C16.8852175,21.8043877 16.7869612,21.7966359 16.6891843,21.7883997 L16.6891843,21.7883997 Z M0.389190627,7.56445544 C0.954763213,9.24270548 2.15301022,10.6302656 3.34167124,11.8884686 C4.10998722,12.703854 4.92191939,13.4736979 5.73528946,14.2411194 C4.50588803,14.8258907 3.30045155,15.9406867 3.09483236,17.3258243 C2.97884205,18.1189234 2.92611918,18.7623172 3.18062685,19.5379749 C3.39631131,20.1852446 3.83247322,20.8480177 4.33429906,21.3077923 C5.09973925,22.0117465 5.90112685,22.3106727 6.87458271,22.6173506 C7.19331641,22.7176386 7.54128734,22.7442852 7.87248282,22.7723852 C8.48502668,22.8276163 9.08223299,22.8881767 9.69429756,22.865406 C10.8982962,22.8198646 12.0984604,22.6343075 13.2909558,22.4623159 C14.5567839,22.2786968 15.8360324,21.983162 17.1162395,21.8964395 C17.1502697,21.9182412 17.1842999,21.9405275 17.2188094,21.9642671 C17.1862171,21.9414964 17.1536248,21.9187257 17.1205532,21.895955 L17.1215118,21.895955 C17.6707882,22.2753054 18.2234197,22.6473886 18.7803649,23.0165648 C18.6447234,22.9225751 18.5090818,22.8276163 18.3743989,22.7326576 C19.3119073,23.387679 20.2494158,24.0310728 21.255464,24.5780544 C22.2571985,25.1230981 23.2795428,25.63229 24.2831945,26.1734578 C26.4755072,27.3580194 28.6452929,28.5808551 30.8098063,29.8143495 C32.9757576,31.0463905 35.1345194,32.3239729 37.3551107,33.4518499 C39.7856349,34.6877667 42.2305381,35.8931611 44.6385353,37.1688056 C49.3227225,39.6517823 53.9623349,42.2122764 58.611054,44.7596894 C60.7530403,45.93117 62.8293627,47.233461 64.926295,48.4843968 C66.0272443,49.1408716 67.1598274,49.7484136 68.2718006,50.3859936 C69.4571065,51.0637857 70.6385781,51.7488451 71.8195703,52.4339044 C71.8320321,52.4411716 71.8449732,52.4484389 71.8574349,52.4557061 C69.6900458,51.9469987 67.5303254,51.3724016 65.3753979,50.8215441 C62.6721527,50.1326089 59.9703454,49.4378599 57.268538,48.7416574 C54.0164956,47.9030169 50.7850631,46.9965487 47.5962882,45.9389217 C44.2651615,44.8318774 40.9445794,43.7001245 37.6321454,42.5373647 C35.907149,41.8721691 34.1720874,41.1667615 32.5822532,40.211845 C32.1250022,39.8494515 31.6897989,39.4599269 31.2608264,39.0611972 C29.7256324,37.6324561 27.2337579,37.7991183 25.8500223,39.3547941 C24.4423217,40.9385699 24.6052833,43.3973225 26.1404773,44.8241257 C27.4901828,46.0808753 28.9525234,47.1123402 30.6037078,47.9185203 C32.1858731,48.6903022 33.8260336,49.3433856 35.4829696,49.9281569 C36.6831338,50.3501419 37.8813808,50.7837544 39.0853794,51.1941117 C41.7061852,52.0874989 44.3313048,52.9673205 46.9597794,53.8418128 C52.0226126,55.528299 57.2479282,56.7336934 62.4118935,58.0543948 C64.8960991,58.6905213 67.3846185,59.3019392 69.8707414,59.930314 C72.2974312,60.5470612 74.7423344,61.0334824 77.2025752,61.4913191 C79.7021184,61.9588455 82.2275438,62.3110648 84.7438625,62.6778186 C85.6372755,62.8086291 86.5206232,62.9147309 87.42506,62.9806207 C87.6028799,62.9941862 87.7658415,63 87.9474957,63 C88.7186875,62.9980621 89.3796405,62.6763652 90.0386764,62.3299596 C90.4019849,62.1366508 90.7183221,61.8527436 90.9728297,61.5271709 C91.5628466,60.7762218 92.1375258,59.6386551 91.9707298,58.6188178 C91.8978764,58.1721242 91.8681599,57.7176789 91.6845885,57.3034457 C91.4655489,56.8053969 91.2704743,56.4119965 90.9862501,55.9803219 C90.5759703,55.355823 90.0142321,54.8069034 89.4620799,54.3074012 C88.9660057,53.8607076 88.4454872,53.4537417 87.9101104,53.0545275 C85.7307387,51.4232723 83.3380791,50.0662347 80.9693845,48.7377815 C78.713325,47.4718268 76.4649343,46.2000582 74.2275675,44.901643 C72.0577818,43.6410176 69.8558831,42.4375611 67.7028729,41.1527115 C65.47653,39.8242584 63.259773,38.4880535 60.9869381,37.244385 C56.338219,34.6989099 51.6909379,32.1553727 47.0105851,29.672396 C44.8086864,28.5047913 42.5583785,27.4185798 40.3358699,26.2887648 C39.2497789,25.7379073 38.1919664,25.1114705 37.1322368,24.5116802 C35.990547,23.8644105 34.8464608,23.2190788 33.7042917,22.5698712 C31.7890137,21.4778459 29.8660669,20.4013241 27.9263447,19.3529023 C26.3283625,18.4895531 24.6790953,17.7056592 23.1501321,16.7158599 C23.2618087,16.3277888 23.3097386,15.9760539 23.3001526,15.4067861 C23.2872116,14.598668 22.9277375,13.8588621 22.5567602,13.1699269 C22.0343245,12.1951465 21.4016501,11.2925542 20.7522002,10.399167 C19.9019241,9.2335003 18.9845462,8.10949911 18.0317002,7.02861694 C17.1910101,6.07854525 16.2415192,5.22343228 15.2905904,4.38866761 C14.86018,4.01367756 14.3861535,3.68858929 13.9221923,3.35914066 C13.1936581,2.8426815 12.4651239,2.3126568 11.7107076,1.83350285 C10.4060563,1.00842785 9.04868208,0.323368504 7.50006765,0.105835516 C6.78111945,0.00360954646 6.00417609,-0.0511370629 5.28331069,0.0661078881 C4.71246582,0.158644192 4.22933263,0.243913248 3.70689693,0.442551388 C3.24820798,0.618903298 2.72960668,0.902810493 2.29919635,1.17896596 C1.23754951,1.85627357 0.46396124,2.96913163 0.149541226,4.18809154 C0.0455333862,4.5887592 0,4.99330273 0,5.39687729 C0,6.13086944 0.152417019,6.8619547 0.389190627,7.56445544 L0.389190627,7.56445544 Z" fill="#2C2C2C" mask="url(#d)"/></g></g></svg>

<svg width="500" height="600" xmlns="http://www.w3.org/2000/svg" xmlns:xlink="http://www.w3.org/1999/xlink"><defs><path id="a" d="M0 .065h158.857V28H0z"/><path id="c" d="M0 0h92v63H0z"/></defs><g fill="none" fill-rule="evenodd"><path d="M264.7 239.12a3.69 3.69 0 00-2.2 1.64 3.496 3.496 0 00-.368 2.75c.227.804.864 1.782 1.69 2.134l.449.188c.49.418.938.865 1.365 1.348.543.78.994 1.587 1.406 2.438 1.043 2.602 1.725 5.323 2.411 8.028.74 2.92 1.167 5.912 1.585 8.892.378 3.983.835 7.96.982 11.956.073 2.015.19 4.028.21 6.043.018 2.197.022 4.393.06 6.587.074 4.168.218 8.34.246 12.505.011 2.078.081 4.178-.031 6.256a93.04 93.04 0 01-.187 2.839c-.25.29-.465.612-.693.924-.407.56-.595 1.277-.685 1.976-.115.267-.212.54-.263.826-.204 1.141-.292 1.993.032 3.135.562 1.98 2.218 3.647 4.27 4.195 1.765.47 3.73.177 5.26-.797 1.184-.753 2.323-1.847 2.902-3.118.56-1.23.77-1.67.85-3.037.043-.656-.082-1.305-.24-1.943-.038-1.034-.269-2.082-.49-3.084-.223-1.006-.385-2.022-.552-3.038-.513-3.931-.959-7.876-1.28-11.824-.362-4.51-.615-9.025-.977-13.53l-.611-7.56c-.074-.943-.236-1.887-.355-2.829-.204-1.622-.408-3.244-.608-4.87-.59-4.692-1.392-9.355-2.644-13.928-.393-1.435-.784-2.87-1.238-4.287-.463-1.466-1.079-2.884-1.739-4.275-.629-1.322-1.519-2.46-2.45-3.592-.84-1.022-2.039-2.065-3.27-2.586-.662-.284-1.276-.482-1.939-.482a3.45 3.45 0 00-.897.12" fill="#161616"/><g transform="rotate(90 17 248)"><mask id="b" fill="#fff"><use xlink:href="#a"/></mask><path d="M3.592 15.427a23.021 23.021 0 009.142 3.4c5.245.649 10.501 1.19 15.752 1.791 7.33.842 14.684 1.432 22.041 1.957l.573.041c4.684.458 9.367.91 14.046 1.424 6.935.764 13.861 1.496 20.816 2.059 5.439.44 10.877.822 16.325 1.105 5.48.285 10.957.664 16.443.78 2.814.058 5.602-.051 8.416-.159 1.183-.045 2.364-.16 3.544-.248 3.92-.289 7.856-.486 11.751-1.01 2.333-.314 4.91-1.072 7.022-1.713 1.948-.587 3.797-1.554 5.508-2.652 1.16-.742 2.256-1.767 2.953-2.978 1.578-2.735.876-3.383-.068-6.131l-.116-.188a19.072 19.072 0 00-2.777-2.77 5.382 5.382 0 00-.508-.447c-2.728-2.044-7.57-3.546-10.785-3.898-2.546-.28-5.1-.572-7.662-.543-2.638.027-5.272.18-7.907.203-2.634.025-5.265-.086-7.893-.236-4.695-.5-9.38-1.057-14.07-1.594-1.12-.127-2.243-.217-3.365-.32-2.848-.262-5.829-.688-8.654-.738-1.64-.03-3.278-.06-4.915-.088-1.297-.022-2.605.125-3.897.2-6.413.37-12.848.725-19.243 1.323l-1.193.11c-4.414-.461-8.836-.82-13.26-1.167-3.917-.358-7.822-.78-11.734-1.236-2.49-.29-4.98-.596-7.477-.838a334.379 334.379 0 00-7.695-.654c-.634-.047-1.272-.123-1.907-.137-3.36-.068-6.745.201-10.064.748a23.021 23.021 0 00-9.142 3.4C1.466 5.502.27 7.369 0 9.826c.269 2.457 1.466 4.324 3.592 5.602" fill="#FC6" mask="url(#b)"/></g><path d="M250.88 240.138a3.93 3.93 0 00-2.327 1.802c-.56.966-.59 1.947-.392 3.019.738 3.99 1.499 7.986 2.068 12.007.47 3.797.663 7.628.795 11.45.066 1.935.104 3.87.138 5.807.023 1.316.072 2.64.057 3.957l-.095 7.964c-.042 3.713-.085 7.427-.13 11.14a93.555 93.555 0 01-.126 4.198l-.62 10.87-.281 4.972c-.036.628-.053 1.259-.109 1.887-.491 5.568-.973 11.14-1.465 16.709-.448 5.08-.978 10.153-1.395 15.236-.454 5.563-.96 11.124-1.395 16.688-.21 2.696-.453 5.396-.464 8.101-.113.342-.167.693-.125 1.02.057.444.067.897.213 1.322.244.704.48 1.104.986 1.653.865.939 2.304 1.266 3.509.934 1.23-.343 2.159-1.315 2.518-2.535.266-.905.399-1.86.5-2.797.07-.644.157-1.29.205-1.936.093-1.25.186-2.502.285-3.75.232-2.955.479-5.902.737-8.852.42-4.828.774-9.662 1.224-14.488.517-5.556 1.03-11.11 1.518-16.67.297-3.374.592-6.749.888-10.123.156-1.78.22-3.57.321-5.354.217-3.795.431-7.59.648-11.386.084-1.475.18-2.944.198-4.42l.232-19.803c.017-1.513-.025-3.026-.05-4.537-.058-3.55-.153-7.096-.359-10.638a107.536 107.536 0 00-1.188-10.9c-.526-3.279-1.128-6.544-1.73-9.81-.18-.958-.982-1.865-1.791-2.34a3.893 3.893 0 00-2.999-.397" fill="#2C2C2C"/><g transform="rotate(90 34.5 250)"><mask id="d" fill="#fff"><use xlink:href="#c"/></mask><path d="M16.69 21.788c.095.001.189.008.283.019a.114.114 0 01.01.006l-.294-.025zM.39 7.564c.565 1.679 1.763 3.066 2.952 4.324.768.816 1.58 1.586 2.393 2.353-1.23.585-2.435 1.7-2.64 3.085-.116.793-.169 1.436.086 2.212.215.647.651 1.31 1.153 1.77.766.704 1.567 1.003 2.54 1.31.32.1.667.126.998.154.613.056 1.21.116 1.822.093 1.204-.045 2.404-.23 3.597-.403 1.266-.183 2.545-.479 3.825-.566l.103.068a60.891 60.891 0 011.156.768c.937.656 1.874 1.3 2.88 1.846 1.002.545 2.025 1.054 3.028 1.595a330.835 330.835 0 016.527 3.641c2.166 1.232 4.325 2.51 6.545 3.638 2.43 1.236 4.876 2.441 7.284 3.717 4.684 2.483 9.323 5.043 13.972 7.59 2.142 1.172 4.218 2.474 6.315 3.725 1.101.657 2.234 1.264 3.346 1.902 1.185.678 2.367 1.363 3.548 2.048l.037.022c-2.167-.509-4.327-1.084-6.482-1.634-2.703-.69-5.405-1.384-8.106-2.08-3.253-.839-6.484-1.745-9.673-2.803a628.794 628.794 0 01-9.964-3.402c-1.725-.665-3.46-1.37-5.05-2.325a22.269 22.269 0 01-1.321-1.15c-1.535-1.43-4.027-1.263-5.411.293-1.408 1.584-1.245 4.042.29 5.47 1.35 1.256 2.813 2.287 4.464 3.094 1.582.771 3.222 1.424 4.879 2.01 1.2.421 2.398.855 3.602 1.265 2.621.893 5.246 1.773 7.875 2.648 5.063 1.686 10.288 2.892 15.452 4.212 2.484.637 4.973 1.248 7.459 1.876 2.426.617 4.871 1.103 7.332 1.561 2.5.468 5.025.82 7.54 1.187.894.13 1.778.237 2.682.303.178.013.34.019.522.019.772-.002 1.433-.324 2.092-.67.363-.193.68-.477.934-.803.59-.75 1.165-1.888.998-2.908-.073-.447-.103-.901-.286-1.316a8.433 8.433 0 00-.699-1.323c-.41-.624-.972-1.173-1.524-1.673a21.528 21.528 0 00-1.552-1.252c-2.18-1.632-4.572-2.989-6.94-4.317a535.441 535.441 0 01-6.742-3.836c-2.17-1.261-4.372-2.464-6.525-3.75-2.226-1.328-4.443-2.664-6.716-3.908-4.649-2.545-9.296-5.089-13.976-7.572-2.202-1.167-4.453-2.253-6.675-3.383-1.086-.551-2.144-1.178-3.204-1.777-1.141-.648-2.286-1.293-3.428-1.942a291.639 291.639 0 00-5.778-3.217c-1.598-.863-3.247-1.647-4.776-2.637.112-.388.16-.74.15-1.31-.013-.807-.372-1.547-.743-2.236-.523-.975-1.155-1.877-1.805-2.77a47.023 47.023 0 00-2.72-3.371c-.841-.95-1.79-1.806-2.741-2.64-.43-.375-.905-.7-1.369-1.03-.728-.516-1.457-1.046-2.211-1.525C10.406 1.008 9.049.324 7.5.106 6.78.004 6.003-.051 5.282.066 4.713.16 4.23.244 3.707.443a8.3 8.3 0 00-1.408.736c-1.061.677-1.835 1.79-2.15 3.01-.103.4-.149.804-.149 1.208 0 .734.152 1.465.39 2.167z" fill="#2C2C2C" mask="url(#d)"/></g></g></svg>
